Origami/48x48/apps/preferences-ubuntu-panel.svg

<svg width="48" height="48" version="1.1" viewBox="0 0 48 48" xmlns="http://www.w3.org/2000/svg">
 <path d="m6 6c-1.108 0-2 0.892-2 2v30 2c0 1.108 0.892 2 2 2h36c1.108 0 2-0.892 2-2v-2-30c0-1.108-0.892-2-2-2h-36z" style="fill:#8b346f"/>
 <path d="m6 6c-1.108 0-2 0.892-2 2v30 2c0 1.108 0.892 2 2 2h8v-36h-8z" style="opacity:.2"/>
 <path d="m6 6c-1.108 0-2 0.892-2 2v1c0-1.108 0.892-2 2-2h36c1.108 0 2 0.892 2 2v-1c0-1.108-0.892-2-2-2z" fill="#fff" opacity=".1"/>
 <g transform="translate(2 -1002.4)" opacity=".2">
  <rect x="5" y="1012.4" width="4" height="4" rx=".5" ry=".5"/>
  <rect x="5" y="1018.4" width="4" height="4" rx=".5" ry=".5"/>
  <rect x="5" y="1024.4" width="4" height="4" rx=".5" ry=".5"/>
  <rect x="5" y="1030.4" width="4" height="4" rx=".5" ry=".5"/>
 </g>
 <rect x="7" y="9" width="4" height="4" rx=".5" ry=".5" fill="#fff" fill-opacity=".973"/>
 <rect x="7" y="15" width="4" height="4" rx=".5" ry=".5" fill="#fff" fill-opacity=".973"/>
 <rect x="7" y="21" width="4" height="4" rx=".5" ry=".5" fill="#fff" fill-opacity=".973"/>
 <rect x="7" y="27" width="4" height="4" rx=".5" ry=".5" fill="#fff" fill-opacity=".973"/>
 <path d="m4 40v1c0 1.108 0.892 2 2 2h36c1.108 0 2-0.892 2-2v-1c0 1.108-0.892 2-2 2h-36c-1.108 0-2-0.892-2-2z" opacity=".2"/>
</svg>

<svg xmlns="http://www.w3.org/2000/svg" width="48" height="48" version="1.1" viewBox="0 0 48 48">
 <path style="fill:#8b346f" d="M 6 6 C 4.892 6 4 6.892 4 8 L 4 38 L 4 40 C 4 41.108 4.892 42 6 42 L 42 42 C 43.108 42 44 41.108 44 40 L 44 38 L 44 8 C 44 6.892 43.108 6 42 6 L 6 6 z"/>
 <path style="opacity:0.2" d="M 6 6 C 4.892 6 4 6.892 4 8 L 4 38 L 4 40 C 4 41.108 4.892 42 6 42 L 14 42 L 14 6 L 6 6 z"/>
 <path fill="#fff" opacity=".1" d="m6 6c-1.108 0-2 0.892-2 2v1c0-1.108 0.892-2 2-2h36c1.108 0 2 0.892 2 2v-1c0-1.108-0.892-2-2-2z"/>
 <g opacity=".2" transform="translate(2 -1002.4)">
  <rect width="4" height="4" x="5" y="1012.4" rx=".5" ry=".5"/>
  <rect width="4" height="4" x="5" y="1018.4" rx=".5" ry=".5"/>
  <rect width="4" height="4" x="5" y="1024.4" rx=".5" ry=".5"/>
  <rect width="4" height="4" x="5" y="1030.4" rx=".5" ry=".5"/>
 </g>
 <rect fill="#fff" fill-opacity=".973" width="4" height="4" x="7" y="9" rx=".5" ry=".5"/>
 <rect fill="#fff" fill-opacity=".973" width="4" height="4" x="7" y="15" rx=".5" ry=".5"/>
 <rect fill="#fff" fill-opacity=".973" width="4" height="4" x="7" y="21" rx=".5" ry=".5"/>
 <rect fill="#fff" fill-opacity=".973" width="4" height="4" x="7" y="27" rx=".5" ry=".5"/>
 <path opacity=".2" d="m4 40v1c0 1.108 0.892 2 2 2h36c1.108 0 2-0.892 2-2v-1c0 1.108-0.892 2-2 2h-36c-1.108 0-2-0.892-2-2z"/>
</svg>
